X:1
T:Turn a New Leaf for Me
T:William James Kirkpatrick
T:Turn a New Leaf for Me
T:Public Domain
T:Public Domain
T:Public Domain
C:William James Kirkpatrick
Z:Public Domain
%%score ( 1 2 ) ( 3 4 )
L:1/8
M:6/8
K:Ab
V:1 treble 
V:2 treble 
V:3 bass 
V:4 bass 
V:1
 [Ec]>[Ec][Ec] [Ec][DB][CA] | [FA][EG][DF] [CE]3 | [B,E][B,F][B,E] [B,E]<[DB][DB] | %3
w: 1.~Turn a new leaf for me,|Fa- ther, I pray;|This one is blot- ted, O|
w: 2.~Turn a new leaf for me,|spot- less and white;|Hold Thou my hand as Thy|
w: 3.~Turn a new leaf for me;|then, line by line,|Help me to co- py the|
w: 4.~Turn a new leaf for me,|Fa- ther a- bove;|Place there new proofs of Thy|
 [CB][CA][FB] [=Ec]3 | [Ec]>[Ec][Ec] [Ec][EB][EA] | [FA][FB][FA] [DF]3 | [CE]>[DF][CE] C[CE][EA] | %7
w: take it a- way;|Cleanse all its stains in the|blood of the cross;|Let me in Je- sus find|
w: bid- ding I write;|Teach me with pa- tience that|ne- ver shall tire,|Let Thine own Spir- it the|
w: pat- tern di- vine;|O that Thine eye some re-|sem- blance might see|To the sweet les- sons in-|
w: mer- cy and love;|Then shall this page of my|life- book be bright,|Judged by the test of e-|
 [Ec][Ec][DB] [CA]3 ||"^Refrain" [EB]>[Ge][Ge] [Ge][EB][Ec] | [Ed][Ec][EB] [Ec]3 | %10
w: for my loss. *|||
w: cord in- spire. Turn|a new leaf for me, Fa-|ther, I pray; Turn|
w: there for me. *|||
w: ni- ty’s light. *|||
 [EB]>[Ge][Ge] [Ge][EG][EG] | [=DB][DA][DF] (B,C_D) | [CE]>[Ec][Ec] [Ec][EB][EA] | %13
w: |||
w: a new leaf in my life-|book to- day; Par- * *|me gra- cious- ly, Deal with|
w: |||
w: |||
 [DF]>[Fd][Fd] [Fd][Fc][FB] | [CE]>[CA][CA] [=DA][DG][DA] | [Ec][Ec][DB] [CA]3 |] %16
w: |||
w: me won- drous- ly, Turn a|new leaf in my life- book|to- day. * *|
w: |||
w: |||
V:2
 x6 | x6 | x6 | x6 | x6 | x6 | x3 C x2 | x6 || x6 | x6 | x6 | x3 E3 | x6 | x6 | x6 | x6 |] %16
w: ||||||gain||||||||||
w: ||||||re-|||||don|||||
w: ||||||scribed||||||||||
w: ||||||ter-||||||||||
V:3
 [A,,A,]>[A,,A,][A,,A,] [A,,A,][A,,A,][A,,A,] | [D,A,][D,A,][D,A,] [A,,A,]3 | %2
 [E,G,][E,A,][E,G,] [E,G,]<[E,G,][E,G,] | F,F,[D,F,] [C,G,]3 | %4
 [A,,A,]>[A,,A,][A,,A,] [A,,A,][B,,G,][C,A,] | [D,A,][D,A,][D,A,] [D,A,]3 | %6
 [A,,A,]>[A,,A,][A,,A,] [A,,E,][A,,A,][C,A,] | [E,A,][E,A,][E,G,] [A,,A,]3 || %8
 [E,G,]>[E,B,][E,B,] [E,B,][E,G,][E,A,] | [E,B,][E,A,][E,G,] A,3 | %10
 [E,G,]>[E,B,][E,B,] [E,B,][E,B,][E,G,] | [B,,F,][B,,F,][B,,A,] (G,A,B,) | %12
 [A,,A,]>[A,,A,][A,,A,] [A,,A,][B,,G,][C,A,] | [D,A,]>[D,A,][D,A,] [D,A,][D,A,][D,D] | %14
 [E,A,]>[E,A,][E,A,] [F,A,][F,B,][F,B,] | [E,A,][E,A,][E,G,] [A,,A,]3 |] %16
V:4
 x6 | x6 | x6 | F,F, x4 | x6 | x6 | x6 | x6 || x6 | x3 A,3 | x6 | x3 E,3 | x6 | x6 | x6 | x6 |] %16

